!!!!SEGMENT: pl-kk--kk-i-102--001-001_anonim--missa-de-ascensione-dni-kyrie.krn
!!!cenid: 17xx:2640
!!!COM: Anonim
!!!COM-rismID: pe30004985
!!!CDT:
!!!CNT:
!!!OPR: [Missa] De ascensione Dni
!!!OTL: Kyrie
!!!OMV: 001
!!!PDT:
!!!AGN: Sacred; Mass
!!!YEC: Copyright 2022 Narodowy Instytut Fryderyka Chopina (https://polishscores.org)
!!!YEM: License CC-BY-4.0 (https://creativecommons.org/licenses/by/4.0)
!!!SMS-siglum: PL-Kk
!!!SMS-shelfmark: Kk.I.102
!!!SMS-variant:
!!!SMS-altvar:
!!!SMS-shelfwork: 001-001 M
!!!NIFC-rismSourceID: 1001156391
!!!NIFC-rismChildID: 1001156391
!!!NIFC-islandoraID: pl-kk:3251
!!!URL-pdf-islandora: https://repozytorium.nifc.pl/islandora/object/pl-kk:3251/datastream/PDF/view
!!!URL-scan: https://polish.musicsources.pl/pl/lokalizacje/galeria/rekopisy/5739/1 @EN{Scan on Polish Music Sources Website} @PL{Skany w portalu Dziedzictwo Muzyki Polskiej w otwartym dostępie}
!!!IIIF:
!!!ONB-nifc: UWAGA: części Mszy: 1. Kyrie, 2. Et in terra, 3. Sanctus, 4. Agnus Dei. Obsada: SAA2TBBrip. Uwaga: Alto 2do dodać tylko w cz. Agnus. Na dole s. 14 fragment innej Mszy.
!!!AIN: 1 alto 2 bass 1 canto 1 tenor
!!!key:
**kern	**text	**kern	**text	**kern	**text	**kern	**text	**kern	**text
*part5	*part5	*part4	*part4	*part3	*part3	*part2	*part2	*part1	*part1
*staff5	*staff5	*staff4	*staff4	*staff3	*staff3	*staff2	*staff2	*staff1	*staff1
*I"Baſso Ripieno.	*	*I"Baſso.	*	*I"Tenore.	*	*I"Alto.	*	*I"Canto.	*
*I'B rip	*	*I'B	*	*I'T	*	*I'A	*	*I'S	*
*Ibass	*	*Ibass	*	*Itenor	*	*Ialto	*	*Icanto	*
*ICvox	*	*ICvox	*	*ICvox	*	*ICvox	*	*ICvox	*
*clefC4	*	*clefC4	*	*clefC3	*	*clefC2	*	*clefG2	*
*k[b-]	*	*k[b-]	*	*k[b-]	*	*k[b-]	*	*k[b-]	*
*g:	*	*g:	*	*g:	*	*g:	*	*g:	*
*M2/1	*	*M2/1	*	*M2/1	*	*M2/1	*	*M2/1	*
*met(C|)	*	*met(C|)	*	*met(C|)	*	*	*	*	*
=1	=1	=1	=1	=1	=1	=1	=1	=1	=1
!	!	!	!	!	!	!LO:TX:t=P:problem:zdwojony znak przykluczowy	!	!	!
*2\right	*	*	*	*	*	*met(C|)	*	*	*
!	!	!	!	!	!	!LO:TX:t=P:problem:kreska pseudotaktowa	!	!	!
*	*	*	*	*2\right	*	*2\right	*	*met(C|)	*
00r	.	00r	.	1G	Ky-	1r	.	00r	.
!	!	!	!	!	!	!LO:TX:t=P:problem:kreska pseudotaktowa	!	!	!
.	.	.	.	2G/	-ri-	1d	Ky-	.	.
!	!	!	!	!LO:TX:t=P:problem:kreska pseudotaktowa	!	!	!	!	!
.	.	.	.	2B-/	.	.	.	.	.
=2	=2	=2	=2	=2	=2	=2	=2	=2	=2
!LO:TX:t=P:problem:kreska pseudotaktowa	!	!LO:TX:t=P:problem:kreska pseudotaktowa	!	!	!	!	!	!	!
.	.	.	.	2G/	-e	2d/	-ri-	.	.
!	!	!	!	!	!	!LO:TX:t=P:problem:kreska pseudotaktowa	!	!	!
!	!	!	!	!	!	!LO:TX:t=P:problem:2\right:global	!	!	!
.	.	.	.	2F/	.	2f\	.	.	.
.	.	.	.	2B-/	e-	2d/	-e	.	.
!	!	!	!	!LO:TX:t=P:problem:kreska pseudotaktowa	!	!LO:TX:t=P:problem:kreska pseudotaktowa	!	!	!
.	.	.	.	2c/	.	2c/	.	.	.
=3	=3	=3	=3	=3	=3	=3	=3	=3	=3
!	!	!LO:TX:t=P:problem:kreska pseudotaktowa	!	!	!	!	!	!	!
1D	Ky-	1D	Ky-	4d\	.	2.f\	e-	00r	.
.	.	.	.	4c\	.	.	.	.	.
.	.	.	.	4d\	.	.	.	.	.
!	!	!	!	!	!	!LO:TX:t=P:problem:kreska pseudotaktowa	!	!	!
.	.	.	.	4e\	.	4g\	.	.	.
2D/	ri-	2D/	ri-	[1f	.	2.a\	.	.	.
!LO:TX:t=P:problem:kreska pseudotaktowa	!	!LO:TX:t=P:problem:kreska pseudotaktowa	!	!	!	!	!	!	!
2F/	-e	2F/	-e	.	.	.	.	.	.
!	!	!	!	!	!	!LO:TX:t=P:problem:kreska pseudotaktowa	!	!	!
.	.	.	.	.	.	4g\	.	.	.
=4	=4	=4	=4	=4	=4	=4	=4	=4	=4
2D/	e-	2D/	.	2f\]	.	4a\	.	.	.
.	.	.	.	.	.	4b-\	.	.	.
!	!	!	!	!LO:TX:t=P:problem:kreska pseudotaktowa	!	!	!	!	!
!	!	!LO:TX:t=P:problem:kreska pseudotaktowa	!	!LO:TX:t=P:problem:2\right:global	!	!	!	!	!
2C/	.	2C/	.	2e\	.	1cc	.	.	.
2F/	.	2F/	e-	1d	-lei-	.	.	.	.
!LO:TX:t=P:problem:kreska pseudotaktowa	!	!LO:TX:t=P:problem:kreska pseudotaktowa	!	!	!	!LO:TX:t=P:problem:kreska pseudotaktowa	!	!	!
2G/	.	2G/	.	.	.	2b-\	.	.	.
=5	=5	=5	=5	=5	=5	=5	=5	=5	=5
4A\	.	4A\	.	2c,\	-son	1a	.	0r	.
4G\	.	4G\	.	.	.	.	.	.	.
!	!	!	!	!LO:TX:t=P:problem:kreska pseudotaktowa	!	!	!	!	!
*	*	*	*	*	*ij	*	*	*	*
4A\	.	4A\	.	2f\	Ky-	.	.	.	.
!LO:TX:t=P:problem:kreska pseudotaktowa	!	!LO:TX:t=P:problem:kreska pseudotaktowa	!	!	!	!	!	!	!
4B-\	.	4B-\	.	.	.	.	.	.	.
!LO:TX:t=P:problem:2\right:global	!	!LO:TX:t=P:problem:2\right:global	!	!	!	!	!	!	!
2c\	-lei-	2c\	-lei-	2e\	-ri-	2g\	.	.	.
!	!	!LO:TX:t=P:problem:kreska pseudotaktowa	!	!	!	!	!	!	!
2d\	.	2d\	.	[2d\	-e	[2f\	.	.	.
=6	=6	=6	=6	=6	=6	=6	=6	=6	=6
!	!	!	!	!	!	!	!	!LO:TX:t=P:problem:kreska pseudotaktowa	!
2B-\	.	2B-\	.	2d\]	.	2f\]	.	1r	.
!	!	!LO:TX:t=P:problem:kreska pseudotaktowa	!	!	!	!	!	!	!
2c\	.	2c\	.	1c	e-	2e\	.	.	.
!LO:TX:t=P:problem:kreska pseudotaktowa	!	!LO:TX:t=P:problem:kreska pseudotaktowa	!	!	!	!LO:TX:t=P:problem:kreska pseudotaktowa	!	!	!
1G	-son	1G	-son	.	.	1d	.	1g	Ky-
!	!	!	!	!LO:TX:t=P:problem:kreska pseudotaktowa	!	!	!	!	!
.	.	.	.	2B-/	.	.	.	.	.
=7	=7	=7	=7	=7	=7	=7	=7	=7	=7
*	*	*	*	*	*	*	*	*2\right	*
2r	.	2r	.	2c\	.	2e\	-lei-	2g/	-ri-
!LO:TX:t=P:problem:kreska pseudotaktowa	!	!LO:TX:t=P:problem:kreska pseudotaktowa	!	!	!	!	!	!LO:TX:t=P:problem:kreska pseudotaktowa	!
2G/	Ky-	2G/	Ky-	2d\	.	2g\	.	2b-/	.
!	!	!	!	!	!	!LO:TX:t=P:problem:kreska pseudotaktowa	!	!	!
2G/	.	2G/	.	[1B-	-lei-	1d	-son	2g/	-e
!	!	!LO:TX:t=P:problem:kreska pseudotaktowa	!	!	!	!	!	!LO:TX:t=P:problem:kreska pseudotaktowa	!
2B-\	-ri-	2B-\	-ri-	.	.	.	.	2f/	.
=8	=8	=8	=8	=8	=8	=8	=8	=8	=8
!	!	!	!	!	!	!LO:TX:t=P:problem:kreska pseudotaktowa	!	!LO:TX:t=P:problem:2\right:global	!
2G/	-e	2G/	-e	2B-/]	.	1r	.	2b-\	e-
!LO:TX:t=P:problem:kreska pseudotaktowa	!	!LO:TX:t=P:problem:kreska pseudotaktowa	!	!LO:TX:t=P:problem:kreska pseudotaktowa	!	!	!	!LO:TX:t=P:problem:kreska pseudotaktowa	!
2F/	.	2F/	.	2A/	.	.	.	2cc\	.
2.B-\	e-	2.B-\	e-	2G/	-son	1d	Ky-	4dd\	.
*	*	*	*	*	*Xij	*	*	*	*
.	.	.	.	.	.	.	.	4cc\	.
.	.	.	.	2g\	Ky-	.	.	4dd\	.
!LO:TX:t=P:problem:kreska pseudotaktowa	!	!LO:TX:t=P:problem:kreska pseudotaktowa	!	!	!	!	!	!	!
4c\	.	4c\	.	.	.	.	.	4ee\	.
=9	=9	=9	=9	=9	=9	=9	=9	=9	=9
!	!	!	!	!	!	!	!	!LO:TX:t=P:problem:kreska pseudotaktowa	!
1.d	.	1.d	-lei-	2f\	-ri-	2d/	-ri-	[1ff	.
!	!	!	!	!	!	!LO:TX:t=P:problem:kreska pseudotaktowa	!	!	!
.	.	.	.	4d\	-e	2f\	-e	.	.
!	!	!	!	!LO:TX:t=P:problem:kreska pseudotaktowa	!	!	!	!	!
.	.	.	.	4e\	.	.	.	.	.
*	*	*	*	*custos:f	*	*	*	*	*
!	!	!	!	!LO:LB:g=original	!	!	!	!	!
.	.	.	.	4f\	e-	2d/	.	2ff\]	.
.	.	.	.	4g\	.	.	.	.	.
!LO:TX:t=P:problem:kreska pseudotaktowa	!	!LO:TX:t=P:problem:kreska pseudotaktowa	!	!LO:TX:t=P:problem:kreska pseudotaktowa	!	!LO:TX:t=P:problem:kreska pseudotaktowa	!	!	!
2A\	.	2A/	.	2a\	.	2c/	.	[2ee\	-lei-
!	!	!	!	!	!	!LO:LB:g=original	!	!	!
=10	=10	=10	=10	=10	=10	=10	=10	=10	=10
!	!	!LO:TX:t=P:problem:kreska pseudotaktowa	!	!	!	!	!	!	!
1B-	-lei-	1B-	.	1d	-lei-	2f\	e-	4ee\]	.
.	.	.	.	.	.	.	.	4dd\	.
.	.	.	.	.	.	2g\	.	1dd	.
!	!	!	!	!	!	!LO:TX:t=P:problem:kreska pseudotaktowa	!	!	!
*	*	*custos:A	*	*	*	*	*	*	*
!	!	!LO:TX:t=P:problem:kreska pseudotaktowa	!	!LO:TX:t=P:problem:kreska pseudotaktowa	!	!	!	!	!
1A	-son	1A	.	1e	-son	2.a\	.	.	.
!	!	!	!	!	!	!	!	!LO:TX:t=P:problem:kreska pseudotaktowa	!
.	.	.	.	.	.	.	.	2cc\	.
!	!	!	!	!	!	!LO:TX:t=P:problem:kreska pseudotaktowa	!	!	!
.	.	.	.	.	.	4g\	.	.	.
=11	=11	=11	=11	=11	=11	=11	=11	=11	=11
!LO:TX:t=P:problem:kreska pseudotaktowa	!	!LO:TX:t=P:problem:kreska pseudotaktowa	!	!	!	!	!	!	!
1D	.	1D	-son	2r	.	4f\	.	2b-/	.
.	.	.	.	.	.	4e\	.	.	.
!	!	!	!	!LO:TX:t=P:problem:kreska pseudotaktowa	!	!	!	!	!
*	*	*	*	*	*ij	*	*	*	*
.	.	.	.	2d\	Ky-	1f	.	4a/	.
.	.	.	.	.	.	.	.	4g/	.
!	!	!	!	!	!	!	!	!LO:TX:t=P:problem:kreska pseudotaktowa	!
2r	.	2r	.	2d\	-ri-	.	.	1a	-son
!LO:TX:t=P:problem:kreska pseudotaktowa	!	!LO:TX:t=P:problem:kreska pseudotaktowa	!	!LO:TX:t=P:problem:kreska pseudotaktowa	!	!LO:TX:t=P:problem:kreska pseudotaktowa	!	!	!
2D/	Ky-	2D/	Ky-	2f\	-e	2d/	.	.	.
=12	=12	=12	=12	=12	=12	=12	=12	=12	=12
!	!	!	!	!	!	!LO:TX:t=P:problem:kreska pseudotaktowa	!	!	!
2D/	.	2D/	.	2d\	e-	1f	.	2r	.
!	!	!LO:TX:t=P:problem:kreska pseudotaktowa	!	!LO:TX:t=P:problem:kreska pseudotaktowa	!	!	!	!LO:TX:t=P:problem:kreska pseudotaktowa	!
2F/	-ri-	2F/	-ri-	2c\	.	.	.	2a/	Ky-
2D/	-e	2D/	-e	2f\	.	2f\	.	2a/	-ri-
!LO:TX:t=P:problem:kreska pseudotaktowa	!	!LO:TX:t=P:problem:kreska pseudotaktowa	!	!	!	!	!	!	!
2C/	.	2C/	.	2g\	.	[2e\	-lei-	[2cc\	-e
=13	=13	=13	=13	=13	=13	=13	=13	=13	=13
2F/	e-	2F/	.	2a\	.	4e\]	.	2cc\]	.
.	.	.	.	.	.	4d/	.	.	.
!	!	!LO:TX:t=P:problem:kreska pseudotaktowa	!	!	!	!	!	!	!
2G/	.	2G/	.	4g\	.	1d	.	2b-/	.
!	!	!	!	!LO:TX:t=P:problem:kreska pseudotaktowa	!	!	!	!	!
.	.	.	.	4f\	.	.	.	.	.
!LO:TX:t=P:problem:kreska pseudotaktowa	!	!	!	!	!	!	!	!LO:TX:t=P:problem:kreska pseudotaktowa	!
1A	.	1A	e-	1e	-lei-	.	.	1a	.
.	.	.	.	.	.	2c/	.	.	.
!	!	!	!	!	!	!LO:TX:t=P:problem:kreska pseudotaktowa	!	!	!
*custos:B-	*	*	*	*	*	*	*	*	*
!LO:LB:g=original	!	!	!	!	!	!	!	!LO:LB:g=original	!
=14	=14	=14	=14	=14	=14	=14	=14	=14	=14
!	!	!	!	!	!	!LO:TX:t=P:problem:kreska pseudotaktowa	!	!	!
2.B-\	-lei-	2.B-\	-lei-	2d,\	-son	1d	-son	2r	.
*	*	*	*	*	*Xij	*	*	*	*
!	!	!	!	!LO:TX:t=P:problem:kreska pseudotaktowa	!	!	!	!LO:TX:t=P:problem:kreska pseudotaktowa	!
.	.	.	.	2G/	Ky-	.	.	2g/	Ky-
!LO:TX:t=P:problem:kreska pseudotaktowa	!	!LO:TX:t=P:problem:kreska pseudotaktowa	!	!	!	!	!	!	!
4A/	.	4A/	.	.	.	.	.	.	.
[1G	.	[1G	.	2.B-/	-ri-	2r	.	2g/	-ri-
!	!	!	!	!	!	!LO:TX:t=P:problem:kreska pseudotaktowa	!	!LO:TX:t=P:problem:kreska pseudotaktowa	!
*	*	*	*	*	*	*	*ij	*	*
.	.	.	.	.	.	2g\	Ky-	2b-/	-e
!	!	!	!	!LO:TX:t=P:problem:kreska pseudotaktowa	!	!	!	!	!
.	.	.	.	4c\	-e	.	.	.	.
=15	=15	=15	=15	=15	=15	=15	=15	=15	=15
2G/]	.	2G/]	.	1d	.	2b-\	-ri-	2g/	.
!LO:TX:t=P:problem:kreska pseudotaktowa	!	!LO:TX:t=P:problem:kreska pseudotaktowa	!	!	!	!	!	!LO:TX:t=P:problem:kreska pseudotaktowa	!
2D/	.	2D/	.	.	.	2.a\	-e	2f/	.
!	!	!	!	!LO:TX:t=P:problem:kreska pseudotaktowa	!	!	!	!	!
1E-X	.	1E-X	.	1G	e-	.	.	2b-\	e-
.	.	.	.	.	.	4g\	.	.	.
!	!	!	!	!	!	!LO:TX:t=P:problem:kreska pseudotaktowa	!	!LO:TX:t=P:problem:kreska pseudotaktowa	!
.	.	.	.	.	.	2g\	e-	2cc\	.
=16	=16	=16	=16	=16	=16	=16	=16	=16	=16
0D	.	0D	.	2A/	-lei-	2f#X\	.	0dd	-lei-
.	.	.	.	2B-/	.	1g	-lei-	.	.
!	!	!	!	!LO:TX:t=P:problem:kreska pseudotaktowa	!	!	!	!	!
.	.	.	.	1A	.	.	.	.	.
!	!	!	!	!	!	!LO:TX:t=P:problem:kreska pseudotaktowa	!	!	!
.	.	.	.	.	.	2f#X\	.	.	.
=17	=17	=17	=17	=17	=17	=17	=17	=17	=17
0G;	-son	0G;	-son	0G;	-son	0g;	-son	0bn;	-son
*	*	*	*	*	*	*	*Xij	*	*
!	!	!	!	!LO:LB:g=original	!	!LO:LB:g=original	!	!	!
=18||	=18||	=18||	=18||	=18||	=18||	=18||	=18||	=18||	=18||
*M2/1	*	*M2/1	*	*M2/1	*	*M2/1	*	*M2/1	*
*met(C|)	*	*met(C|)	*	*	*	*met(C|)	*	*met(C|)	*
!	!	!	!	!	!	!	!	!LO:TX:t=P:problem:kreska pseudotaktowa	!
00r	.	00r	.	00r	.	1.g	Chri-	1r	.
.	.	.	.	.	.	.	.	[1dd	Chri-
!	!	!	!	!	!	!LO:TX:t=P:problem:kreska pseudotaktowa	!	!	!
.	.	.	.	.	.	2f\	.	.	.
=19	=19	=19	=19	=19	=19	=19	=19	=19	=19
.	.	.	.	.	.	2b-\	-ste	2dd\]	.
!	!	!	!	!	!	!LO:TX:t=P:problem:kreska pseudotaktowa	!	!LO:TX:t=P:problem:kreska pseudotaktowa	!
.	.	.	.	.	.	2cc\	.	2cc\	-ste
.	.	.	.	.	.	[1b-	e-	2ff\	.
!	!	!	!	!	!	!	!	!LO:TX:t=P:problem:kreska pseudotaktowa	!
.	.	.	.	.	.	.	.	2gg\	.
=20	=20	=20	=20	=20	=20	=20	=20	=20	=20
!	!	!	!	!	!	!	!	!LO:TX:t=P:problem:kreska pseudotaktowa	!
00r	.	00r	.	0r	.	2b-\]	.	1ff	.
!	!	!	!	!	!	!LO:TX:t=P:problem:kreska pseudotaktowa	!	!	!
.	.	.	.	.	.	2a\	.	.	.
.	.	.	.	.	.	2g\	.	2ee\	e-
!	!	!	!	!	!	!LO:TX:t=P:problem:kreska pseudotaktowa	!	!	!
.	.	.	.	.	.	2f\	.	[2dd\	.
=21	=21	=21	=21	=21	=21	=21	=21	=21	=21
!	!	!	!	!LO:TX:t=P:problem:kreska pseudotaktowa	!	!	!	!	!
.	.	.	.	1r	.	2g\	.	2dd\]	.
!	!	!	!	!	!	!LO:TX:t=P:problem:kreska pseudotaktowa	!	!LO:TX:t=P:problem:kreska pseudotaktowa	!
.	.	.	.	.	.	2a\	.	2cc\	.
.	.	.	.	[1d	Chri-	2.f\	.	2dd\	-lei-
.	.	.	.	.	.	.	.	[2ff\	.
!	!	!	!	!	!	!LO:TX:t=P:problem:kreska pseudotaktowa	!	!	!
.	.	.	.	.	.	4g\	.	.	.
=22	=22	=22	=22	=22	=22	=22	=22	=22	=22
00r	.	00r	.	2d\]	.	4a\	.	2ff\]	.
.	.	.	.	.	.	4b-\	.	.	.
!	!	!	!	!LO:TX:t=P:problem:kreska pseudotaktowa	!	!	!	!LO:TX:t=P:problem:kreska pseudotaktowa	!
.	.	.	.	2c\	.	1cc	.	2ee\	.
.	.	.	.	2f\	-ste	.	.	[1dd	.
!	!	!	!	!LO:TX:t=P:problem:kreska pseudotaktowa	!	!LO:TX:t=P:problem:kreska pseudotaktowa	!	!	!
.	.	.	.	2g\	.	2b-\	.	.	.
=23	=23	=23	=23	=23	=23	=23	=23	=23	=23
.	.	.	.	2f\	e-	2a\	.	2dd\]	.
!	!	!	!	!	!	!LO:TX:t=P:problem:kreska pseudotaktowa	!	!LO:TX:t=P:problem:kreska pseudotaktowa	!
.	.	.	.	2e\	.	2g\	.	2cc\	.
!	!	!	!	!	!	!	!	!LO:TX:t=P:problem:kreska pseudotaktowa	!
*	*	*	*	*	*	*	*	*custos:b	*
!	!	!	!	!	!	!	!	!LO:LB:g=original	!
.	.	.	.	2d\	.	2f\	.	2b-\	.
!	!	!	!	!LO:TX:t=P:problem:kreska pseudotaktowa	!	!	!	!	!
.	.	.	.	2c/	.	[2g\	.	2cc\	.
=24	=24	=24	=24	=24	=24	=24	=24	=24	=24
!LO:TX:t=P:problem:kreska pseudotaktowa	!	!LO:TX:t=P:problem:kreska pseudotaktowa	!	!	!	!	!	!	!
1r	.	1r	.	1.d	.	2g\]	.	1a	.
!	!	!	!	!	!	!LO:TX:t=P:problem:kreska pseudotaktowa	!	!	!
.	.	.	.	.	.	2f\	.	.	.
!	!	!	!	!	!	!	!	!LO:TX:t=P:problem:kreska pseudotaktowa	!
[1G	Chri-	[1G	Chri-	.	.	[1b-	-lei-	1g	-son
.	.	.	.	4B-/	.	.	.	.	.
!	!	!	!	!LO:TX:t=P:problem:kreska pseudotaktowa	!	!	!	!	!
.	.	.	.	4c/	.	.	.	.	.
=25	=25	=25	=25	=25	=25	=25	=25	=25	=25
2G/]	.	2G/]	.	4d\	.	2b-\]	.	1r	.
.	.	.	.	4e\	.	.	.	.	.
!LO:TX:t=P:problem:kreska pseudotaktowa	!	!LO:TX:t=P:problem:kreska pseudotaktowa	!	!	!	!	!	!	!
2F/	.	2F/	.	1f	.	2a\	.	.	.
!	!	!	!	!	!	!LO:TX:t=P:problem:kreska pseudotaktowa	!	!	!
2B-\	-ste	2B-\	-ste	.	.	1g	-son	2r	.
!	!	!LO:TX:t=P:problem:kreska pseudotaktowa	!	!LO:TX:t=P:problem:kreska pseudotaktowa	!	!	!	!	!
2c\	.	2c\	.	2e\	.	.	.	[2g/	Chri-
=26	=26	=26	=26	=26	=26	=26	=26	=26	=26
!	!	!	!	!	!	!LO:TX:t=P:problem:kreska pseudotaktowa	!	!	!
2B-\	e-	2B-\	e-	2d\	.	0r	.	2g/]	.
!LO:TX:t=P:problem:kreska pseudotaktowa	!	!LO:TX:t=P:problem:kreska pseudotaktowa	!	!LO:TX:t=P:problem:kreska pseudotaktowa	!	!	!	!LO:TX:t=P:problem:kreska pseudotaktowa	!
2A/	.	2A\	.	2c\	.	.	.	2f/	.
*	*	*custos:G	*	*	*	*	*	*	*
!	!	!LO:LB:g=original	!	!	!	!	!	!	!
2G/	-lei-	2G/	.	2d\	-lei-	.	.	2b-\	-ste
!	!	!LO:TX:t=P:problem:kreska pseudotaktowa	!	!LO:TX:t=P:problem:kreska pseudotaktowa	!	!	!	!	!
2C/	.	2C/	.	2e\	.	.	.	[2cc\	.
=27	=27	=27	=27	=27	=27	=27	=27	=27	=27
!	!	!	!	!LO:TX:t=P:problem:kreska pseudotaktowa	!	!	!	!	!
1G	.	1G	-lei-	1d	-son	2r	.	2cc\]	.
!	!	!	!	!	!	!	!	!LO:TX:t=P:problem:kreska pseudotaktowa	!
.	.	.	.	.	.	1g	Chri-	2b-\	.
!LO:TX:t=P:problem:kreska pseudotaktowa	!	!LO:TX:t=P:problem:kreska pseudotaktowa	!	!	!	!	!	!	!
1D	-son	1D	-son	2r	.	.	.	1a	.
!	!	!	!	!	!	!LO:TX:t=P:problem:kreska pseudotaktowa	!	!	!
.	.	.	.	[2d\	/Chri-	2f\	.	.	.
=28	=28	=28	=28	=28	=28	=28	=28	=28	=28
00r	.	00r	.	2d\]	.	2b-\	-ste	2f/	.
!	!	!	!	!LO:TX:t=P:problem:kreska pseudotaktowa	!	!	!	!LO:TX:t=P:problem:kreska pseudotaktowa	!
.	.	.	.	2c\	.	1cc	.	2g/	.
.	.	.	.	2f\	-ste	.	.	2a/	.
!	!	!	!	!	!	!LO:TX:t=P:problem:kreska pseudotaktowa	!	!LO:TX:t=P:problem:kreska pseudotaktowa	!
.	.	.	.	[2g\	.	2b-\	.	2b-\	.
!	!	!	!	!	!	!LO:LB:g=original	!	!	!
=29	=29	=29	=29	=29	=29	=29	=29	=29	=29
!	!	!LO:TX:t=P:problem:kreska pseudotaktowa	!	!	!	!LO:TX:t=P:problem:kreska pseudotaktowa	!	!	!
.	.	.	.	2g\]	.	1a	.	2cc\	.
!	!	!	!	!LO:TX:t=P:problem:kreska pseudotaktowa	!	!	!	!	!
.	.	.	.	2f\	e-	.	.	1dd	.
.	.	.	.	1e	-lei-	[1g	.	.	.
!	!	!	!	!	!	!	!	!LO:TX:t=P:problem:kreska pseudotaktowa	!
.	.	.	.	.	.	.	.	2cc\	.
=30	=30	=30	=30	=30	=30	=30	=30	=30	=30
!	!	!	!	!LO:TX:t=P:problem:kreska pseudotaktowa	!	!	!	!	!
2r	.	2r	.	1d	-son/	2g\]	.	2b-/	e-
1D	X-	1D	Chri-	.	.	4f\	.	4a/	.
!	!	!	!	!	!	!LO:TX:t=P:problem:kreska pseudotaktowa	!	!LO:TX:t=P:problem:kreska pseudotaktowa	!
.	.	.	.	.	.	4e\	.	4g/	.
!	!	!	!	!LO:LB:g=original	!	!	!	!	!
.	.	.	.	1r	.	2f\	.	4a/	.
.	.	.	.	.	.	.	.	4b-/	-lei-
!LO:TX:t=P:problem:kreska pseudotaktowa	!	!LO:TX:t=P:problem:kreska pseudotaktowa	!	!	!	!	!	!	!
2C/	-te	2C/	.	.	.	2e\	.	[2cc\	.
=31	=31	=31	=31	=31	=31	=31	=31	=31	=31
!	!	!	!	!LO:TX:t=P:problem:kreska pseudotaktowa	!	!	!	!	!
2F/	e-	2F/	-ste	0r	.	2.d/	.	2cc\]	.
!	!	!LO:TX:t=P:problem:kreska pseudotaktowa	!	!	!	!	!	!LO:TX:t=P:problem:kreska pseudotaktowa	!
2G/	.	2G/	.	.	.	.	.	2b-\	.
!	!	!	!	!	!	!LO:TX:t=P:problem:kreska pseudotaktowa	!	!	!
.	.	.	.	.	.	4e\	.	.	.
2F/	.	2F/	.	.	.	2f\	lei-	2a/	.
!LO:TX:t=P:problem:kreska pseudotaktowa	!	!LO:TX:t=P:problem:kreska pseudotaktowa	!	!	!	!	!	!	!
2E/	.	2E/	.	.	.	[2g\	.	2g/	.
=32	=32	=32	=32	=32	=32	=32	=32	=32	=32
!	!	!LO:TX:t=P:problem:kreska pseudotaktowa	!	!	!	!	!	!LO:TX:t=P:problem:kreska pseudotaktowa	!
1D	.	1D	.	2r	.	2g\]	.	0a	-son
!	!	!	!	!	!	!LO:TX:t=P:problem:kreska pseudotaktowa	!	!	!
.	.	.	.	1d	Chri-	2f\	.	.	.
1A	.	1A	e-	.	.	2e,\	-son	.	.
!	!	!	!	!LO:TX:t=P:problem:kreska pseudotaktowa	!	!	!	!	!
.	.	.	.	2c\	.	[2a\	e-	.	.
!	!	!	!	!	!	!	!	!LO:LB:g=original	!
=33	=33	=33	=33	=33	=33	=33	=33	=33	=33
2d\	.	2d\	-lei-	2f\	-ste	2a\]	.	2r	.
!LO:TX:t=P:problem:kreska pseudotaktowa	!	!LO:TX:t=P:problem:kreska pseudotaktowa	!	!	!	!LO:TX:t=P:problem:kreska pseudotaktowa	!	!	!
2G/	-lei-	2G/	.	2g\	.	2b-\	.	1dd	Chri-
1A	.	1A	.	2f\	e-	2.a\	.	.	.
!	!	!	!	!LO:TX:t=P:problem:kreska pseudotaktowa:między nutą a kropką	!	!	!	!LO:TX:t=P:problem:kreska pseudotaktowa	!
.	.	.	.	[2e\	.	.	.	2cc\	.
!	!	!	!	!	!	!LO:TX:t=P:problem:kreska pseudotaktowa	!	!	!
.	.	.	.	.	.	4g\	.	.	.
=34	=34	=34	=34	=34	=34	=34	=34	=34	=34
!	!	!	!	!LO:N:xstem:cue	!	!	!	!	!
2B-\	.	2B-\	.	4e\]	.	2f\	-lei-	2ff\	-ste
.	.	.	.	4d\	.	.	.	.	.
!	!	!LO:TX:t=P:problem:kreska pseudotaktowa	!	!	!	!	!	!LO:TX:t=P:problem:kreska pseudotaktowa	!
2G/	.	2G/	.	1d	.	2.b-\	.	2gg\	.
*lig	*	*lig	*	*	*	*	*	*	*
1A	.	1A	.	.	.	.	.	2ff\	e-
.	.	.	.	.	.	4a\	.	.	.
!	!	!	!	!LO:TX:t=P:problem:kreska pseudotaktowa	!	!	!	!	!
.	.	.	.	2c/	.	[2a\	.	[2ee\	.
=35	=35	=35	=35	=35	=35	=35	=35	=35	=35
!	!	!LO:TX:t=P:problem:kreska pseudotaktowa	!	!	!	!	!	!	!
*	*	*	*	*lig	*	*	*	*	*
1B-	.	1B-	.	1d	-lei-	2a\]	.	4ee\]	.
.	.	.	.	.	.	.	.	4dd\	.
.	.	.	.	.	.	2g\	.	1dd	-lei-
!	!	!	!	!	!	!LO:TX:t=P:problem:kreska pseudotaktowa	!	!	!
*Xlig	*	*Xlig	*	*	*	*	*	*	*
1A	.	1A	.	1e	.	1a	.	.	.
.	.	.	.	.	.	.	.	2cc#X\	.
!	!	!	!	!	!	!	!	!LO:TX:t=P:problem:kreska pseudotaktowa	!
*	*	*	*	*Xlig	*	*	*	*	*
=36	=36	=36	=36	=36	=36	=36	=36	=36	=36
0D;	-son	0D;	-son	0d;	-son	0a;	-son.	0dd;	-son
!LO:LB:g=original	!	!	!	!	!	!	!	!	!
=37||	=37||	=37||	=37||	=37||	=37||	=37||	=37||	=37||	=37||
*M2/1	*	*M2/1	*	*M2/1	*	*M2/1	*	*M2/1	*
*met(C|)	*	*met(C|)	*	*met(C|)	*	*	*	*	*
!	!	!	!	!LO:TX:t=P:problem:kreska pseudotaktowa	!	!	!	!	!
*	*	*	*	*	*	*met(C|)	*	*	*
!	!	!	!	!	!	!LO:TX:t=P:problem:kreska pseudotaktowa	!	!	!
*	*	*	*	*	*	*	*	*met(C|)	*
00r	.	00r	.	1d	Ky-	1a	Ky-	1.dd	Ky-
.	.	.	.	2d\	-ri-	2a\	-ri-	.	.
!	!	!	!	!	!	!	!	!LO:TX:t=P:problem:kreska pseudotaktowa	!
.	.	.	.	[2g\	-e	[2b-\	-e	2dd\	-ri-
=38	=38	=38	=38	=38	=38	=38	=38	=38	=38
.	.	.	.	2g\]	.	2b-\]	.	2ee\	-e
!	!	!	!	!LO:TX:t=P:problem:kreska pseudotaktowa	!	!LO:TX:t=P:problem:kreska pseudotaktowa	!	!	!
.	.	.	.	2f\	.	2a\	.	2dd\	.
!	!	!	!	!	!	!LO:TX:t=P:problem:kreska pseudotaktowa	!	!LO:TX:t=P:problem:kreska pseudotaktowa	!
.	.	.	.	2e\	.	1g	.	1cc	e-
.	.	.	.	[2c\	.	.	.	.	.
!	!	!	!	!	!	!LO:LB:g=original	!	!	!
=39	=39	=39	=39	=39	=39	=39	=39	=39	=39
0r	.	0r	.	2c\]	.	2e\	e-	2a/	.
!	!	!	!	!LO:TX:t=P:problem:kreska pseudotaktowa:między nutą a kropką	!	!	!	!	!
.	.	.	.	[2d\	.	2.f\	.	2.b-/	-lei-
!	!	!	!	!LO:N:xstem:cue	!	!	!	!	!
.	.	.	.	4d\]	.	.	.	.	.
.	.	.	.	4A/	.	4e/	.	4a/	.
!	!	!	!	!LO:TX:t=P:problem:kreska pseudotaktowa	!	!LO:TX:t=P:problem:kreska pseudotaktowa	!	!	!
.	.	.	.	2c/	.	2e/	-lei-	[2a/	.
=40	=40	=40	=40	=40	=40	=40	=40	=40	=40
!LO:TX:t=P:problem:kreska pseudotaktowa	!	!LO:TX:t=P:problem:kreska pseudotaktowa	!	!	!	!	!	!	!
1r	.	1r	.	1B-	.	1d	.	2a/]	.
!	!	!	!	!	!	!	!	!LO:TX:t=P:problem:kreska pseudotaktowa	!
.	.	.	.	.	.	.	.	2g/	.
!	!	!	!	!	!	!	!	!LO:TX:t=P:problem:kreska pseudotaktowa	!
2r	.	2r	.	2A/	.	2e,\	-son	1a	-son
!	!	!	!	!LO:TX:t=P:problem:kreska pseudotaktowa	!	!	!	!	!
*	*	*	*	*	*	*	*ij	*	*
[2A\	Ky-	[2A\	Ky-	2e\	.	[2a\	Ky-	.	.
!	!	!	!	!LO:LB:g=original	!	!	!	!	!
=41	=41	=41	=41	=41	=41	=41	=41	=41	=41
2A\]	.	2A\]	.	2e\	.	2a\]	.	0r	.
!	!	!	!	!	!	!LO:TX:t=P:problem:kreska pseudotaktowa	!	!	!
1d	-ri-	1d	-ri-	1f	.	2a\	-ri-	.	.
.	.	.	.	.	.	2b-\	-e	.	.
!LO:TX:t=P:problem:kreska pseudotaktowa	!	!	!	!LO:TX:t=P:problem:kreska pseudotaktowa	!	!	!	!	!
2c\	-e	2c\	.	2e\	.	2a\	.	.	.
!	!	!LO:LB:g=original	!	!	!	!	!	!	!
=42	=42	=42	=42	=42	=42	=42	=42	=42	=42
!	!	!	!	!	!	!LO:TX:t=P:problem:kreska pseudotaktowa	!	!	!
2Bn\	.	2Bn\	-e	2d\	.	1g	.	0r	.
2.c\	e-	2.c\	.	2.e\	.	.	.	.	.
.	.	.	.	.	.	2e\	e-	.	.
4B/	.	4B\	.	4d\	.	.	.	.	.
4A/	.	4A/	.	4c/	.	[2f\	.	.	.
!LO:TX:t=P:problem:kreska pseudotaktowa	!	!LO:TX:t=P:problem:kreska pseudotaktowa	!	!LO:TX:t=P:problem:kreska pseudotaktowa	!	!	!	!	!
4G/	.	4G/	.	4B-/	.	.	.	.	.
=43	=43	=43	=43	=43	=43	=43	=43	=43	=43
!	!	!	!	!	!	!	!	!LO:TX:t=P:problem:kreska pseudotaktowa	!
2F/	lei-	2F/	lei-	2A/	.	2f\]	.	1r	.
!	!	!	!	!	!	!LO:TX:t=P:problem:kreska pseudotaktowa	!	!	!
2C/	.	2C/	.	1c	.	2e\	-lei-	.	.
1G	.	1G	.	.	.	1d	.	2r	.
!	!	!	!	!LO:TX:t=P:problem:kreska pseudotaktowa	!	!	!	!LO:TX:t=P:problem:kreska pseudotaktowa	!
.	.	.	.	2B-/	.	.	.	2g/	Ky-
=44	=44	=44	=44	=44	=44	=44	=44	=44	=44
!LO:TX:t=P:problem:kreska pseudotaktowa	!	!LO:TX:t=P:problem:kreska pseudotaktowa	!	!	!	!	!	!	!
1C	-son	1C	-son	2.c/	.	2e,\	-son	2g/	-ri-
*	*	*	*	*	*	*	*Xij	*	*
!	!	!	!	!	!	!LO:TX:t=P:problem:kreska pseudotaktowa	!	!	!
.	.	.	.	.	.	2c/	Ky-	1cc	-e
.	.	.	.	4B-/	.	.	.	.	.
1r	.	1r	.	2A/	lei-	2e\	-ri-	.	.
!	!	!	!	!LO:TX:t=P:problem:kreska pseudotaktowa	!	!	!	!LO:TX:t=P:problem:kreska pseudotaktowa	!
.	.	.	.	2G/	.	2g\	-e	2b-\	.
=45	=45	=45	=45	=45	=45	=45	=45	=45	=45
!	!	!	!	!LO:TX:t=P:problem:kreska pseudotaktowa	!	!LO:TX:t=P:problem:kreska pseudotaktowa	!	!	!
2r	.	2r	.	1F	-son	1a	.	2.cc\	.
!LO:TX:t=P:problem:kreska pseudotaktowa	!	!LO:TX:t=P:problem:kreska pseudotaktowa	!	!	!	!	!	!	!
2F/	Ky-	2F/	Ky-	.	.	.	.	.	.
!	!	!	!	!	!	!	!	!LO:TX:t=P:problem:kreska pseudotaktowa	!
.	.	.	.	.	.	.	.	4b-\	.
!	!	!	!	!	!	!	!	!LO:LB:g=original	!
2A\	-ri-	2A\	.	00r	.	2f\	e-	2a/	e-
!LO:TX:t=P:problem:kreska pseudotaktowa	!	!LO:TX:t=P:problem:kreska pseudotaktowa	!	!	!	!	!	!LO:TX:t=P:problem:kreska pseudotaktowa	!
2c\	-e	2c\	-ri-	.	.	[2e/	.	2g/	.
=46	=46	=46	=46	=46	=46	=46	=46	=46	=46
2d\	e-	2d\	.	.	.	4e/]	.	2f/	-lei-
.	.	.	.	.	.	4d/	.	.	.
!	!	!	!	!	!	!	!	!LO:TX:t=P:problem:kreska pseudotaktowa	!
2B-\	.	2B-\	-e	.	.	1d	.	2d/	.
!LO:TX:t=P:problem:kreska pseudotaktowa	!	!	!	!	!	!	!	!	!
1A	.	1A	e-	.	.	.	.	1e	.
!	!	!	!	!	!	!LO:TX:t=P:problem:kreska pseudotaktowa	!	!	!
.	.	.	.	.	.	2c/	.	.	.
=47	=47	=47	=47	=47	=47	=47	=47	=47	=47
!	!	!	!	!LO:TX:t=P:problem:kreska pseudotaktowa	!	!	!	!	!
2.B-\	-lei-	2.B-\	-lei-	.	.	2.d/	.	2d,/	-son
!	!	!	!	!	!	!	!	!LO:TX:t=P:problem:kreska pseudotaktowa	!
.	.	.	.	.	.	.	.	2f/	Ky-
!	!	!	!	!	!	!LO:TX:t=P:problem:kreska pseudotaktowa	!	!	!
8A/L	.	8A/L	.	.	.	4e/	.	.	.
!	!	!LO:TX:t=P:problem:kreska pseudotaktowa	!	!	!	!	!	!	!
8G/J	.	8G/J	.	.	.	.	.	.	.
1F	.	1F	.	2r	.	4f\	-lei-	1a	-ri-
.	.	.	.	.	.	4g\	.	.	.
!	!	!	!	!LO:TX:t=P:problem:kreska pseudotaktowa	!	!	!	!	!
.	.	.	.	2c\	Ky-	4a\	.	.	.
.	.	.	.	.	.	4f\	.	.	.
=48	=48	=48	=48	=48	=48	=48	=48	=48	=48
!LO:TX:t=P:problem:kreska pseudotaktowa	!	!LO:TX:t=P:problem:kreska pseudotaktowa	!	!	!	!	!	!LO:TX:t=P:problem:kreska pseudotaktowa	!
1C	-son	1C	-son	2e\	-ri-	2g\	.	1cc	-e
!	!	!	!	!LO:TX:t=P:problem:kreska pseudotaktowa	!	!	!	!	!
.	.	.	.	2g\	-e	2e\	.	.	.
!	!	!	!	!	!	!LO:TX:t=P:problem:kreska pseudotaktowa	!	!	!
2r	.	2r	.	2a\	.	1f	-son	2.cc\	.
!	!	!LO:TX:t=P:problem:kreska pseudotaktowa	!	!LO:TX:t=P:problem:kreska pseudotaktowa	!	!	!	!	!
*	*ij	*	*ij	*	*	*	*	*	*
2F/	Ky-	2F/	Ky-	2a\	e-	.	.	.	.
.	.	.	.	.	.	.	.	4b-/	.
!	!	!	!	!	!	!LO:LB:g=original	!	!	!
=49	=49	=49	=49	=49	=49	=49	=49	=49	=49
2A\	.	2A\	.	2f\	.	2r	.	2a/	.
!LO:TX:t=P:problem:kreska pseudotaktowa	!	!	!	!	!	!	!	!	!
*	*	*	*	*lig	*	*	*	*	*
!	!	!	!	!	!	!LO:TX:t=P:problem:kreska pseudotaktowa	!	!LO:TX:t=P:problem:kreska pseudotaktowa	!
[2c\	-ri-	1c	-ri-	1e	.	2c/	Ky-	2g/	.
2c\]	.	.	.	.	.	2e\	-ri-	2cc\	e-
!	!	!LO:TX:t=P:problem:kreska pseudotaktowa	!	!	!	!LO:TX:t=P:problem:kreska pseudotaktowa	!	!	!
2B-\	-e	2B-\	-e	[2d\	.	2g\	-e	2dd\	.
*	*	*	*	*Xlig	*	*	*	*	*
=50	=50	=50	=50	=50	=50	=50	=50	=50	=50
!	!	!	!	!	!	!LO:TX:t=P:problem:kreska pseudotaktowa	!	!	!
1A	e-	1A	e-	2d\]	.	0a	.	2ff\	-lei-
!	!	!	!	!LO:TX:t=P:problem:kreska pseudotaktowa	!	!	!	!LO:TX:t=P:problem:kreska pseudotaktowa	!
.	.	.	.	2c\	.	.	.	2ee\	.
2.D/	-lei-	2.D/	-lei-	1d	.	.	.	2ff\	.
!	!	!	!	!	!	!	!	!LO:TX:t=P:problem:kreska pseudotaktowa	!
.	.	.	.	.	.	.	.	2f/	.
4E/	.	4E/	.	.	.	.	.	.	.
=51	=51	=51	=51	=51	=51	=51	=51	=51	=51
!LO:TX:t=P:problem:kreska pseudotaktowa	!	!LO:TX:t=P:problem:kreska pseudotaktowa	!	!	!	!	!	!	!
1F	-son	1F	-son	2c/	.	2.f\	e-	2a,/	-son
*	*Xij	*	*Xij	*	*	*	*	*	*
!	!	!	!	!LO:TX:t=P:problem:kreska pseudotaktowa	!	!	!	!LO:TX:t=P:problem:kreska pseudotaktowa	!
.	.	.	.	2A/	.	.	.	2cc\	Ky-
!	!	!	!	!	!	!LO:TX:t=P:problem:kreska pseudotaktowa	!	!	!
.	.	.	.	.	.	4e/	.	.	.
!LO:TX:t=P:problem:kreska pseudotaktowa	!	!	!	!	!	!	!	!	!
1r	.	1r	.	2.B-/	.	2d/	.	1dd	-ri-
.	.	.	.	.	.	[2f\	.	.	.
!	!	!	!	!LO:TX:t=P:problem:kreska pseudotaktowa	!	!	!	!	!
.	.	.	.	4c/	.	.	.	.	.
*	*	*	*	*custos:d	*	*	*	*	*
!	!	!	!	!LO:LB:g=original	!	!	!	!	!
=52	=52	=52	=52	=52	=52	=52	=52	=52	=52
2r	.	2r	.	4d\	.	4f\]	.	2b-/	-e
.	.	.	.	4e\	.	4g\	.	.	.
!	!	!LO:TX:t=P:problem:kreska pseudotaktowa	!	!LO:TX:t=P:problem:kreska pseudotaktowa	!	!	!	!	!
*	*	*	*	*	*	*	*	*lig	*
2F/	Ky-	2F/	Ky-	2f\	.	4a\	.	1a	.
!	!	!	!	!	!	!LO:TX:t=P:problem:kreska pseudotaktowa	!	!	!
.	.	.	.	.	.	4b-\	.	.	.
!	!	!	!	!LO:TX:t=P:problem:kreska pseudotaktowa	!	!	!	!	!
2A\	-ri-	2A\	-ri-	1e	-son	1cc	.	.	.
!LO:TX:t=P:problem:kreska pseudotaktowa	!	!LO:TX:t=P:problem:kreska pseudotaktowa	!	!	!	!	!	!	!
2c\	-e	2c\	.	.	.	.	.	[2g/	.
!LO:LB:g=original	!	!LO:LB:g=original	!	!	!	!	!	!	!
=53	=53	=53	=53	=53	=53	=53	=53	=53	=53
!	!	!LO:TX:t=P:problem:kreska pseudotaktowa	!	!	!	!LO:TX:t=P:problem:kreska pseudotaktowa	!	!	!
2.d\	e-	1d	-e	2r	.	1a	.	2g/]	.
*	*	*	*	*	*ij	*	*	*Xlig	*
!	!	!	!	!	!	!	!	!LO:TX:t=P:problem:kreska pseudotaktowa	!
.	.	.	.	1d	Ky-	.	.	2f/	.
!LO:TX:t=P:problem:kreska pseudotaktowa	!	!	!	!	!	!	!	!	!
4c\	.	.	.	.	.	.	.	.	.
2B-\	-lei-	2B-\	.	.	.	2g\	-lei-	2g/	e-
!	!	!	!	!LO:TX:t=P:problem:kreska pseudotaktowa	!	!	!	!LO:TX:t=P:problem:kreska pseudotaktowa	!
[2A/	.	[2A\	e-	2c\	-ri-	2f\	.	2a/	-lei-
=54	=54	=54	=54	=54	=54	=54	=54	=54	=54
!LO:N:xstem:cue	!	!	!	!	!	!	!	!	!
4A/]	.	4A\]	.	2d\	-e	1g	.	2.b-\	.
4G/	.	4G/	-le-	.	.	.	.	.	.
1G	.	1G	-i-	2B-/	e-	.	.	.	.
!	!	!	!	!	!	!	!	!LO:TX:t=P:problem:kreska pseudotaktowa	!
.	.	.	.	.	.	.	.	4cc\	.
!	!	!	!	!LO:TX:t=P:problem:kreska pseudotaktowa	!	!LO:TX:t=P:problem:kreska pseudotaktowa	!	!	!
.	.	.	.	1A	-son	1d	-son	2dd\	.
*	*	*	*	*	*Xij	*	*	*	*
!	!	!LO:TX:t=P:problem:kreska pseudotaktowa	!	!	!	!	!	!LO:TX:t=P:problem:kreska pseudotaktowa	!
2F/	-son	2F/	.	.	.	.	.	2a/	.
=55	=55	=55	=55	=55	=55	=55	=55	=55	=55
!LO:TX:t=P:problem:kreska pseudotaktowa	!	!LO:TX:t=P:problem:kreska pseudotaktowa	!	!	!	!	!	!	!
1G	.	1G	-son	1r	.	2r	.	4b-\	.
.	.	.	.	.	.	.	.	4cc\	.
!	!	!	!	!	!	!LO:TX:t=P:problem:kreska pseudotaktowa	!	!	!
*	*	*	*	*	*	*	*ij	*	*
.	.	.	.	.	.	2B-/	Ky-	4dd\	.
!	!	!	!	!	!	!	!	!LO:TX:t=P:problem:kreska pseudotaktowa	!
.	.	.	.	.	.	.	.	4ee\	.
!	!	!	!	!	!	!	!	!LO:LB:g=original	!
2.D/	Ky-	2.D/	Ky-	2r	.	2d/	-ri-	2ff\	.
!	!	!	!	!LO:TX:t=P:problem:kreska pseudotaktowa	!	!	!	!LO:TX:t=P:problem:kreska pseudotaktowa	!
.	.	.	.	2F/	Ky-	[2f\	-e	2dd\	.
!	!	!LO:TX:t=P:problem:kreska pseudotaktowa	!	!	!	!	!	!	!
4E/	-ri-	4E/	.	.	.	.	.	.	.
=56	=56	=56	=56	=56	=56	=56	=56	=56	=56
4F/	-e	4F/	-ri-	2A/	-ri-	2f\]	.	2.cc\	-lei-
4G/	.	4G/	.	.	.	.	.	.	.
!LO:TX:t=P:problem:kreska pseudotaktowa	!	!LO:TX:t=P:problem:kreska pseudotaktowa	!	!LO:TX:t=P:problem:kreska pseudotaktowa	!	!LO:TX:t=P:problem:kreska pseudotaktowa	!	!	!
2A/	.	2A\	-e	2c\	-e	2e\	e-	.	.
!	!	!	!	!	!	!	!	!LO:TX:t=P:problem:kreska pseudotaktowa	!
.	.	.	.	.	.	.	.	4b-/	.
!	!	!	!	!LO:TX:t=P:problem:kreska pseudotaktowa	!	!LO:TX:t=P:problem:kreska pseudotaktowa	!	!	!
2D/	e-	2D/	e-	1d	e-	1f	-le-	4a/	.
.	.	.	.	.	.	.	.	4g/	.
!LO:TX:t=P:problem:kreska pseudotaktowa	!	!LO:TX:t=P:problem:kreska pseudotaktowa	!	!	!	!	!	!	!
2F/	.	2F/	.	.	.	.	.	[2a/	.
=57	=57	=57	=57	=57	=57	=57	=57	=57	=57
*lig	*	*	*	*lig	*	*	*	*	*
!	!	!	!	!	!	!LO:TX:t=P:problem:kreska pseudotaktowa	!	!	!
1G	-lei-	1G	-lei-	1B-	-lei-	0d	-i-	4a/]	.
.	.	.	.	.	.	.	.	4g/	.
.	.	.	.	.	.	.	.	1g	.
!	!	!LO:TX:t=P:problem:kreska pseudotaktowa	!	!	!	!	!	!	!
1D	.	1D	.	1A	.	.	.	.	.
.	.	.	.	.	.	.	.	2f#X/	.
!	!	!	!	!	!	!	!	!LO:TX:t=P:problem:kreska pseudotaktowa	!
*Xlig	*	*	*	*Xlig	*	*	*	*	*
=58	=58	=58	=58	=58	=58	=58	=58	=58	=58
0G;	-son	0G;	-son	0Bn;	-son.	0d;	-son	0g;	-son.
*	*	*	*	*	*	*	*Xij	*	*
==	==	==	==	==	==	==	==	==	==
*-	*-	*-	*-	*-	*-	*-	*-	*-	*-
!!!system-decoration: [(s1,s2,s3,s4,s5)]
!!!ENC: Filip Voros
!!!END: 2024-05-05
!!!ENC: Leszek Kubiak
!!!END: 2024-06-16
